icon/gr/pin.svg

<svg xmlns="http://www.w3.org/2000/svg" width="24" height="24"><path fill="none" stroke="#000" stroke-width="2" d="m16 3-6 6s-4-1-7 2l10 10c3-3 2-7 2-7l6-6-5-5ZM1 23l7-7m6-15 9 9"/></svg>

<svg xmlns="http://www.w3.org/2000/svg" viewBox="0 0 24 24" height="1em" width="1em">
  <path fill="none" stroke="#000" stroke-width="2" d="M16,3 L10,9 C10,9 6,8 3,11 C3,11 13,21 13,21 C16,18 15,14 15,14 L21,8 L16,3 Z M1,23 L8,16 M14,1 L23,10"/>
</svg>
